X: 15
T:Three Around Three
M:4/4
L:1/8
S:Dave Townsend
K:G
d2 BA G2 G2| A2 BA G2 D2| EDEF G2 AB| c2 B2 B2 A2|d2 BA G2 G2| A2 BA G2
D2| EDEF G2 Ac| B2 G2 G4:|: d2 ef gfed| e2e2 efge| d2B2B2 AG| FGAB A4| d
2ef gfed| e2e2e2d2|efge f2a2|g4 g4:||
